public/images/circle-slack.svg

<svg fill="none" height="60" viewBox="0 0 60 60" width="60" xmlns="http://www.w3.org/2000/svg"><path d="m29.5864 59.2434c16.2924 0 29.5-13.2076 29.5-29.5s-13.2076-29.499992-29.5-29.499992-29.4999742 13.207592-29.4999742 29.499992 13.2075742 29.5 29.4999742 29.5z" fill="#00c3cd"/><g clip-rule="evenodd" fill="#fff" fill-rule="evenodd"><path d="m33.4362 38.2134c1.69 0 3.07 1.38 3.07 3.07s-1.38 3.07-3.07 3.07-3.07-1.38-3.07-3.07v-3.07z"/><path d="m22.666 33.5934c0-1.69 1.38-3.07 3.07-3.07s3.07 1.38 3.07 3.07v7.68c0 1.69-1.38 3.07-3.07 3.07s-3.07-1.38-3.07-3.07z"/><path d="m21.1161 33.5934c0 1.69-1.38 3.07-3.07 3.07s-3.07-1.38-3.07-3.07 1.38-3.07 3.07-3.07h3.07z"/><path d="m41.126 36.6634c1.69 0 3.07-1.38 3.07-3.07s-1.38-3.07-3.07-3.07h-7.68c-1.69 0-3.07 1.38-3.07 3.07s1.38 3.07 3.07 3.07z"/><path d="m41.1262 28.9634c1.69 0 3.07-1.38 3.07-3.07s-1.38-3.07-3.07-3.07-3.07 1.38-3.07 3.07v3.07z"/><path d="m36.5062 25.8934c0 1.69-1.38 3.07-3.07 3.07s-3.07-1.38-3.07-3.07v-7.68c0-1.69 1.38-3.07 3.07-3.07s3.07 1.38 3.07 3.07z"/><path d="m25.7363 28.9634c1.69 0 3.07-1.38 3.07-3.07s-1.38-3.07-3.07-3.07h-7.68c-1.69 0-3.07 1.38-3.07 3.07s1.38 3.07 3.07 3.07z"/><path d="m28.806 21.2734v-3.07c0-1.69-1.38-3.07-3.07-3.07s-3.07 1.38-3.07 3.07 1.38 3.07 3.07 3.07z"/></g></svg>

<svg width="60" height="60" viewBox="0 0 60 60" fill="none" xmlns="http://www.w3.org/2000/svg">
<path d="M29.5864 59.2434C45.8788 59.2434 59.0864 46.0358 59.0864 29.7434C59.0864 13.451 45.8788 0.243408 29.5864 0.243408C13.294 0.243408 0.0864258 13.451 0.0864258 29.7434C0.0864258 46.0358 13.294 59.2434 29.5864 59.2434Z" fill="#00C3CD"/>
<path fill-rule="evenodd" clip-rule="evenodd" d="M33.4362 38.2134C35.1262 38.2134 36.5062 39.5934 36.5062 41.2834C36.5062 42.9734 35.1262 44.3534 33.4362 44.3534C31.7462 44.3534 30.3662 42.9734 30.3662 41.2834V38.2134H33.4362Z" fill="white"/>
<path fill-rule="evenodd" clip-rule="evenodd" d="M22.666 33.5934C22.666 31.9034 24.046 30.5234 25.736 30.5234C27.426 30.5234 28.806 31.9034 28.806 33.5934V41.2734C28.806 42.9634 27.426 44.3434 25.736 44.3434C24.046 44.3434 22.666 42.9634 22.666 41.2734V33.5934Z" fill="white"/>
<path fill-rule="evenodd" clip-rule="evenodd" d="M21.1161 33.5934C21.1161 35.2834 19.7361 36.6634 18.0461 36.6634C16.3561 36.6634 14.9761 35.2834 14.9761 33.5934C14.9761 31.9034 16.3561 30.5234 18.0461 30.5234H21.1161V33.5934Z" fill="white"/>
<path fill-rule="evenodd" clip-rule="evenodd" d="M41.126 36.6634C42.816 36.6634 44.196 35.2834 44.196 33.5934C44.196 31.9034 42.816 30.5234 41.126 30.5234H33.446C31.756 30.5234 30.376 31.9034 30.376 33.5934C30.376 35.2834 31.756 36.6634 33.446 36.6634H41.126Z" fill="white"/>
<path fill-rule="evenodd" clip-rule="evenodd" d="M41.1262 28.9634C42.8162 28.9634 44.1962 27.5834 44.1962 25.8934C44.1962 24.2034 42.8162 22.8234 41.1262 22.8234C39.4362 22.8234 38.0562 24.2034 38.0562 25.8934V28.9634H41.1262Z" fill="white"/>
<path fill-rule="evenodd" clip-rule="evenodd" d="M36.5062 25.8934C36.5062 27.5834 35.1262 28.9634 33.4362 28.9634C31.7462 28.9634 30.3662 27.5834 30.3662 25.8934V18.2134C30.3662 16.5234 31.7462 15.1434 33.4362 15.1434C35.1262 15.1434 36.5062 16.5234 36.5062 18.2134V25.8934Z" fill="white"/>
<path fill-rule="evenodd" clip-rule="evenodd" d="M25.7363 28.9634C27.4263 28.9634 28.8063 27.5834 28.8063 25.8934C28.8063 24.2034 27.4263 22.8234 25.7363 22.8234H18.0563C16.3663 22.8234 14.9863 24.2034 14.9863 25.8934C14.9863 27.5834 16.3663 28.9634 18.0563 28.9634H25.7363Z" fill="white"/>
<path fill-rule="evenodd" clip-rule="evenodd" d="M28.806 21.2734V18.2034C28.806 16.5134 27.426 15.1334 25.736 15.1334C24.046 15.1334 22.666 16.5134 22.666 18.2034C22.666 19.8934 24.046 21.2734 25.736 21.2734H28.806Z" fill="white"/>
</svg>
